X: 1
T: Polska efter Pekkos Olof Hansson
R: Bingsj\&quot;o-polska
M: 3/4
L: 1/16
K: Dm
|: DEFG A4   d4 | A2BA  G2AG F2AF | D2f2 ~f2ef gfed |1,3 ^c2a2 age^c A4  :|2,4 age^c   
 d8 :|
|: A2df a2ba g4 | A2^ce gage f4   | fafd ege^c d2e2 |1,3 ~f2ed ^c2ec A3A :|2,4 
{f}ed^ce d8 :|
